X: 7109
T: Christmas Eve
R: reel
M: 4/4
K: Gmajor
|:E|DCDE GFGA|B2 dB A/^A/B GB|A/^A/B GE DCDE|GABG ABGE|
DCDE GFGA|B2 dB A/^A/B GA|BA A/^G/A =GEBG|1 A/^A/B GE G3:|2 A/^A/B GE G2||
|:GA|BABd ed e/f/g|abge g/a/g eg|a/b/a/^g af =gage|dedB A/^A/B G=A|
B/c/B/A/ Bd ed e/f/g|abge g/a/g eg|a/b/a ge d/e/d BG|A/^A/B GE G2:|
Gd|:BG G/F/G BGBd|eggf e/f/g dc|BG G/F/G BGAG|EA A/^G/A EA A/G/A|
BG G/F/G BGBd|eg g/f/g e/f/g dg|bgag e/f/g dB|1 ABGE G3 d:|2 ABGE G3||

